src/assets/icons/selected.svg

<?xml version="1.0" encoding="UTF-8"?>
<svg width="24px" height="24px" viewBox="0 0 24 24" version="1.1" xmlns="http://www.w3.org/2000/svg" xmlns:xlink="http://www.w3.org/1999/xlink">
    <title>单选选中 2</title>
    <g id="扩展程序" stroke="none" stroke-width="1" fill="none" fill-rule="evenodd">
        <g id="主题" transform="translate(-305.000000, -463.000000)">
            <g id="编组-2备份-2" transform="translate(30.000000, 450.000000)">
                <g id="编组" transform="translate(275.000000, 13.000000)">
                    <circle id="椭圆形" fill="#FFFFFF" cx="12" cy="12" r="6"></circle>
                    <path d="M12,4 C16.418278,4 20,7.581722 20,12 C20,16.418278 16.418278,20 12,20 C7.581722,20 4,16.418278 4,12 C4,7.581722 7.581722,4 12,4 Z M15.2426407,9.75735931 C14.8521164,9.36683502 14.2189514,9.36683502 13.8284271,9.75735931 L13.8284271,9.75735931 L10.999,12.585 L9.58578644,11.1715729 C9.22530248,10.8110889 8.65807142,10.7833594 8.26578021,11.0883843 L8.17157288,11.1715729 C7.78104858,11.5620972 7.78104858,12.1952621 8.17157288,12.5857864 L8.17157288,12.5857864 L10.2928932,14.7071068 C10.4731352,14.8873488 10.705064,14.9844021 10.9409686,14.9982669 L11.0590314,14.9982669 L11.0590314,14.9982669 L11.1764315,14.9844021 C11.3708099,14.9497402 11.5569051,14.8573084 11.7071068,14.7071068 L11.7071068,14.7071068 L15.2426407,11.1715729 C15.633165,10.7810486 15.633165,10.1478836 15.2426407,9.75735931 Z" id="形状结合" fill="#297AFF"></path>
                </g>
            </g>
        </g>
    </g>
</svg>

<svg width="24" height="24" xmlns="http://www.w3.org/2000/svg"><g fill="none" fill-rule="evenodd"><circle fill="#fff" cx="12" cy="12" r="6"/><path d="M12 4a8 8 0 1 1 0 16 8 8 0 0 1 0-16zm3.243 5.757a1 1 0 0 0-1.415 0L11 12.585l-1.413-1.413a1 1 0 0 0-1.32-.084l-.094.084a1 1 0 0 0 0 1.414l2.12 2.121c.181.18.413.277.649.291h.118l.117-.014a.995.995 0 0 0 .531-.277l3.536-3.535a1 1 0 0 0 0-1.415z" fill="#297aff"/></g></svg>
